X: 32
T: No_12_Return_of_the_War_Messenger.krn
%%abc-version 2.0
%%abcx-abcm2ps-target-version 5.9.1 (29 Sep 2008)
%%abc-creator hum2abc beta
%%abcx-conversion-date 2020/08/10 18:54:57
%%gracespace 0 6 6
%%humdrum-veritas 3429503870
%%humdrum-veritas-data 1982810630
%%linebreak <none>
%%barnumbers 0
L: 1/4
M: 2/4
%%staves {1 2}
V: 1 clef=treble
V: 2 clef=bass
K: Db
[V:1] F [I:setbarnb 1]||  
[V:2] z ||  
[V:1] [M:3/4]F2F | 
[V:2] [M:3/4](3!accent!G,,/G,,/ z/ (3!accent!G,,/G,,/ z/ (3!accent!G,,/G,,/ z/ | 
[V:1] EDB, ||  
[V:2] z3 ||  
[V:1] [M:2/4]D2 ||  
[V:2] [M:2/4]z2 ||  
[V:1] [M:3/4]D2F | 
[V:2] [M:3/4]z3 | 
[V:1] F2F | 
[V:2] z3 | 
[V:1] EDB, ||  
[V:2] z3 ||  
[V:1] [M:2/4]D2 ||  
[V:2] [M:2/4]z2 ||  
[V:1] [M:3/4]D3 | 
[V:2] [M:3/4]z3 | 
[V:1] DDD ||  
[V:2] z3 ||  
[V:1] [M:2/4]DD/D/ | 
[V:2] [M:2/4]z2 | 
[V:1] DF | 
[V:2] z2 | 
[V:1] D/>B,/B,[K:clef=bass] ||  
[V:2] z2 ||  
[V:1] D/>F,/F, ||  
[V:2] z2 ||  
[V:1] [M:3/4]F,2-F,3//E,// ||  
[V:2] [M:3/4]z3 ||  
[V:1] [M:2/4]E,2 | 
[V:2] [M:2/4]z2 | 
[V:1] D,D, | 
[V:2] z2 | 
[V:1] D,2 ||  
[V:2] z2 ||  
[V:1] [M:3/4]F,2F, | 
[V:2] [M:3/4]z3 | 
[V:1] E,D,B,, ||  
[V:2] z3 ||  
[V:1] [M:2/4]D,2 ||  
[V:2] [M:2/4]z2 ||  
[V:1] [M:3/4]B,,3 |]  
[V:2] [M:3/4]z3 |]  


